X:95
T:Morgan Rattler
L:1/8
M:6/8
S:O'Neill - 1001 Gems (257)
K:C
c |\
   GFE DEF | EDE C2c | GFE DEG | A2G ABc | GFE DEF | EDE C2f | ec/B/c dBG | A2G ABc :|
|: c3 ecA | ~B3 dBG | c3 ceA | afd efg | c3 ecA | B/A/Bc dBG | ~c3 BAG | A2G ABc :|
|: cBA BAG | cGF EDC | cBA BAG | A2G ABc | cBA BAG | cGF EcA | GFE DEG | A2G ABc :|
|| c3c3 | ceg dBG | c>cc ceg | afd efg | c3c3 | ceg dBG | ~c3 BGE | A2G ABc |
   c3c3 | ceg dBG | c>cc ceg | afd efg | cde/f/ gfe | dec BAG | ~c3 BGE | A2G ABc ||
|: ceg ceg | ceg dBG | ceg ceg | afd efg | g/g/ge f/f/fd | e/e/ec d/d/dB | c/c/cA B/B/BG | A2G ABc :|
|: GEE CEE | CEE CEE | GEE CEE | A2G ABc | GEE CEE | CEE C2f | ec/B/c dBG | A2G ABc :|
|: c>de/f g2e | a2f g2e | c>de/f/ g2e | dBG ABc | c>de/f/ gfe | dec BAG | c3 BAG | A<BG ABc :|
|: c>de/f/ gdB | cGE C2c | c>de/f/ gdB | dBG ABc | c>de/f/ gdB | cGF EcA | GFE DEG | A<BG ABc :|
|: EDE C/C/CC | C/C/CC C/C/CC | EDE C/C/CC | A2G ABc | EDE C/C/CC | C/C/CC C2f | ed/B/c dBG | A2G ABc :|
|: C2c cBc | D2d dcd | C2c cBc | A2G ABc | C2c cBc | D2d def | gfe dcB | A2G ABc :|
